Sources/FrostedUI/Resources/Icons.xcassets/telegram12.imageset/telegram-12.svg

<svg width="12" height="12" viewBox="0 0 12 12" fill="none" xmlns="http://www.w3.org/2000/svg" data-fui-icon="true">
  <path
    d="M10.6169 1.37598C10.6661 1.38112 10.7196 1.38935 10.7742 1.40234C10.8538 1.42133 10.9579 1.45448 11.0613 1.51562L11.1638 1.58691L11.1658 1.58887C11.3424 1.73332 11.4165 1.91284 11.45 2.03516L11.4724 2.13574L11.4744 2.14453C11.4893 2.23734 11.5101 2.44572 11.4919 2.63184L11.4929 2.63281C11.3524 4.10976 10.7478 7.65342 10.4431 9.27734C10.3058 10.0142 9.97212 10.5686 9.3689 10.624C8.9546 10.6619 8.61148 10.5194 8.33472 10.3574C8.19792 10.2773 8.06562 10.1853 7.94604 10.1006C7.82173 10.0126 7.70972 9.93134 7.59058 9.85352C7.182 9.58638 6.86174 9.36952 6.54761 9.15625L5.53491 8.47754C5.28186 8.3113 5.06416 8.12141 4.94116 7.88672C4.79937 7.61558 4.8118 7.34077 4.91577 7.10449C5.00474 6.90264 5.15634 6.73668 5.27417 6.61719C5.3369 6.55358 5.4052 6.48869 5.46655 6.42969C5.48547 6.41149 5.50293 6.3918 5.52124 6.37402C5.26675 6.54473 4.99506 6.72444 4.70874 6.91699C4.29579 7.20012 3.86132 7.38247 3.41772 7.37305C3.19319 7.36818 2.90508 7.3093 2.64429 7.24414C2.37195 7.17608 2.08441 7.09001 1.84253 7.01172V7.01074C1.59381 6.93 1.27291 6.8408 1.05054 6.7334C0.933332 6.67673 0.786241 6.58945 0.672607 6.4502C0.543369 6.2916 0.479486 6.09084 0.506592 5.87207H0.505615C0.540973 5.58335 0.740744 5.39176 0.891357 5.28027C1.05213 5.1613 1.25836 5.05868 1.48804 4.9668L4.84546 3.51562C5.74185 3.13073 6.41524 2.84481 6.86499 2.6582L8.43823 2.01367C8.85698 1.84569 9.18017 1.72083 9.43433 1.62891C9.93389 1.44823 10.2214 1.37386 10.4841 1.36914L10.6169 1.37598ZM10.4929 2.36914C10.4071 2.37204 10.2489 2.39763 9.77417 2.56934C9.29091 2.74413 8.52866 3.0502 7.2478 3.58105C6.35719 3.95059 4.57142 4.71803 1.88647 5.88379L1.87866 5.8877L1.87183 5.89062C1.83369 5.90574 1.79889 5.92238 1.76636 5.93652C1.8192 5.95373 1.87522 5.97301 1.93628 5.99219C2.00322 6.0132 2.07657 6.03537 2.15112 6.05957C2.37917 6.13338 2.64328 6.21264 2.88647 6.27344C3.14148 6.33715 3.33566 6.37077 3.43921 6.37305C3.59401 6.37626 3.82384 6.31249 4.14429 6.09277L4.14722 6.09082C5.40215 5.24685 6.3553 4.61047 7.00464 4.18262C7.32883 3.96901 7.57975 3.8057 7.75562 3.69434C7.84285 3.6391 7.91463 3.59388 7.96948 3.56152C7.99646 3.54561 8.0245 3.52977 8.04956 3.5166C8.0558 3.51319 8.12334 3.47668 8.2019 3.45898L8.27905 3.44336C8.31607 3.43755 8.36263 3.43226 8.41187 3.43262C8.51752 3.43346 8.6872 3.45972 8.83569 3.59277H8.83472C8.98312 3.72491 9.02623 3.89039 9.03979 3.98145C9.05308 4.07128 9.04833 4.16255 9.03101 4.23828L9.03198 4.23926C9.01297 4.32185 8.97699 4.38371 8.96362 4.40625C8.94541 4.43693 8.92576 4.46422 8.90991 4.48535C8.8779 4.52801 8.83991 4.57321 8.80151 4.61621C8.72332 4.70377 8.61944 4.81176 8.50269 4.92871C8.26775 5.16403 7.95966 5.45748 7.65308 5.74609C7.3457 6.03545 7.03528 6.32291 6.79468 6.5459C6.67406 6.65768 6.57165 6.75362 6.49487 6.8252C6.45659 6.86089 6.42527 6.89015 6.4021 6.91211C6.37651 6.93636 6.36745 6.94483 6.36792 6.94434V6.94531C6.29622 7.01955 6.22406 7.0887 6.15991 7.15039C6.09356 7.21419 6.03715 7.26756 5.98608 7.31934C5.92182 7.38452 5.88329 7.43084 5.86011 7.46191C5.89412 7.49847 5.95955 7.56 6.08374 7.6416C6.48075 7.90224 6.79553 8.11619 7.10913 8.3291C7.42258 8.54191 7.73671 8.75459 8.13745 9.0166L8.52417 9.28516C8.64266 9.36905 8.74367 9.43793 8.8396 9.49414C9.01955 9.59951 9.144 9.63318 9.25952 9.62695C9.26434 9.62226 9.27273 9.61578 9.28198 9.60352C9.32828 9.54204 9.40338 9.39616 9.45972 9.09375L9.46069 9.09277C9.76611 7.46507 10.3611 3.9637 10.4968 2.53809L10.4978 2.53516C10.5005 2.50824 10.5008 2.46461 10.4978 2.41309C10.4969 2.39753 10.4941 2.38252 10.4929 2.36914Z"
    fill="currentColor"
  />
</svg>

<svg xmlns="http://www.w3.org/2000/svg" width="12" height="12" fill="none" data-fui-icon="true" viewBox="0 0 12 12"><path fill="currentColor" d="M10.617 1.376q.076.007.157.026c.08.02.184.052.287.114l.103.07.002.003c.176.144.25.324.284.446l.022.1.002.01c.015.092.036.3.018.487-.14 1.478-.744 5.021-1.049 6.645-.137.737-.47 1.292-1.074 1.347-.414.038-.758-.105-1.034-.267a5 5 0 0 1-.389-.256c-.124-.088-.236-.17-.355-.247a68 68 0 0 1-1.043-.698l-1.013-.678c-.253-.167-.47-.357-.594-.591a.88.88 0 0 1-.025-.783 1.7 1.7 0 0 1 .358-.487c.063-.063.131-.128.193-.187l.054-.056q-.382.254-.812.543c-.413.283-.848.465-1.291.456a4 4 0 0 1-.774-.129c-.272-.068-.56-.154-.801-.232V7.01c-.25-.081-.57-.17-.792-.278a1.1 1.1 0 0 1-.378-.283.75.75 0 0 1-.166-.578H.506c.035-.289.235-.48.385-.592.161-.119.367-.221.597-.313l3.357-1.451q1.345-.577 2.02-.858l1.573-.644c.419-.168.742-.293.996-.385.5-.18.787-.255 1.05-.26zm-.124.993c-.086.003-.244.029-.719.2-.483.175-1.245.481-2.526 1.012q-1.335.555-5.362 2.303l-.007.004-.007.003q-.057.023-.106.046l.17.055q.102.031.215.068c.228.073.492.153.735.213.255.064.45.098.553.1.155.003.385-.06.705-.28l.003-.002Q6.03 4.825 7.005 4.183q.487-.321.75-.489a9 9 0 0 1 .295-.177.7.7 0 0 1 .152-.058l.077-.016a1 1 0 0 1 .133-.01c.106 0 .275.027.424.16h-.001a.65.65 0 0 1 .205.388.7.7 0 0 1-.009.257l.001.001a.6.6 0 0 1-.068.167 1 1 0 0 1-.054.08q-.05.064-.108.13a8 8 0 0 1-.3.313 41 41 0 0 1-.849.817c-.307.29-.618.577-.858.8l-.3.28-.127.118v.001c-.072.075-.144.144-.208.205q-.098.094-.174.17a1.4 1.4 0 0 0-.126.142c.034.036.1.098.224.18.397.26.712.474 1.025.687.314.213.628.426 1.028.688l.387.268c.119.084.22.153.316.21.18.105.304.138.42.132q.007-.006.022-.023c.046-.062.121-.208.178-.51v-.001c.306-1.628.901-5.13 1.037-6.555v-.003a1 1 0 0 0 0-.122q-.001-.023-.004-.044"/></svg>
